X:1
T:10.  Lobt Gott, ihr Christen, allzugleich
T:Hugo Distler
T:Nicolaus Herrmann (ca. 1480 -  1561)
T:10.  Praise God, Ye Christians, All as One Lobt Gott, ihr Christen, allzugleich Christmas
C:Hugo Distler
Z:Nicolaus Herrmann
Z:(ca. 1480 -  1561)
%%score [ 1 2 3 ]
L:1/8
Q:1/4=120
M:2/4
K:G
V:1 treble nm="Soprano 1"
V:2 treble nm="Soprano 2"
V:3 treble nm="Alto"
V:1
"^Fast and light"!f! G2 !breath!d2"^*)" | G2 !breath!d2 | G2 d2 |[M:4/4] d2 d2 d2 (e2- | %4
w: 1. Praise God,|praise, God,|praise God,|ye Christ- ians, all|
w: 2. He comes,|He comes,|He comes|here from His Fa-|
w: 3. He cries,|He cries,|He cries|a- loud with all|
w: 4. And He,|and He,|and He|as ser- vant, I|
w: 5. To- day,|to- day,|to- day|He has un- locked|
 edBc d3) c |[M:6/4] !breath!B4 d4 e2 d2 | (Bc !breath!d3 c Bc d2) (cB) | %7
w: _ _ _ _ _ as|one, on His ma-|jes- * * * * * * tic _|
w: * * * * * ther's|care, be- comes a|ti- * * * * * * ny _|
w: _ _ _ _ _ His|strength, to low- li-|ness _ _ _ _ _ _ He _|
w: _ _ _ _ _ as|lord, a won- d'rous|switch _ _ _ _ _ _ in- *|
w: _ _ _ _ _ the|door to glor- ious|par- * * * * * * a- *|
[M:3/4] !breath!A2 d2 d2- |[M:4/4] d2 d2 d2 B2 |[M:6/4] (d3 e dB c d2 c) B2 |[M:4/4] A6 z2 | %11
w: throne, who now|_ un- locks His|heav'n- * * * * * * ly|home|
w: Child who lies|_ in want, in|sta- * * * * * * ble|bare,|
w: clings, and takes|_ a ser- vant's|liv- * * * * * * er-|y,|
w: deed. How could|_ He have been|friend- * * * * * * li-|er,|
w: dise; the Cher-|* ub stands to|guard _ _ _ _ _ _ no|more.|
 z2 d2 B2 !breath!A2 | d2 B2 !breath!A2 d2 | B2 (AG) A2 A2 | (GF!>(!GABABc!>)! | %15
w: and sends us,|and sends us, and|sends His _ on- ly|Son, _ _ _ _ _ _ _|
w: a man- ger,|a man- ger, a|man- ger _ for His|bed, _ _ _ _ _ _ _|
w: cre- a- tor,|Cre- a- tor, Cre-|a- tor _ of all|things, _ _ _ _ _ _ _|
w: that ti- ny,|that ti- ny, that|ti- ny _ Je- sus,|Lord, _ _ _ _ _ _ _|
w: Un- to God,|un- to God, to|God be _ high- est|praise, _ _ _ _ _ _ _|
[M:6/4] !breath!d2)"^piu"!f! B2 d2 (cB) A2 A2 |[M:2/4] !breath!G2 BB | !breath!d2 BB | %18
w: _ and sends His _ on- ly|Son, on- ly|Son, on- ly|
w: _ a man- ger _ for His|bed, for His|bed, for His|
w: _ Cre- a- tor _ of all|things, of all|things, of all|
w: _ that ti- ny _ Je- sus,|Lord, Je- sus,|Lord, Je- sus,|
w: _ to God be _ high- est|praise, high- est|praise, high- est|
[M:6/4] !breath!d2 (B3 d- !breath!dBdegd | e3 d- d)c d6 |] %20
w: Son, on- * * * * * * *|* * * ly Son.|
w: bed, for _ _ _ _ _ _ _|_ _ _ His bed.|
w: things, of _ _ _ _ _ _ _|_ _ _ all things.|
w: Lord, Je- * * * * * * *|* * * sus, Lord?|
w: praise, high- * * * * * * *|* * * est praise.|
V:2
 z2!f! D2 | !breath!G2 D2 | !breath!G2 D2 |[M:4/4] G2 G2 G2 G2 | (A2 G4) =F2 | %5
w: 1.  Praise|God, praise|God, praise|God, ye Christ- ians,|all _ as|
w: 2.  He|comes, He|comes, He|comes here from His|Fa- * ther's|
w: 3.  He|cries, He|cries, He|cries a- loud with|all _ His|
w: 4.  And|He, and|He, and|He as ser- vant,|I _ as|
w: 5.  To-|day, to-|day, to-|day He has un-|locked _ the|
[M:6/4] !breath!G4 G2 G2 E2 (A2- | A2 B3 A G4) G2 |[M:3/4] !breath!^F2 F2 A2 | %8
w: one, on His ma- jes-|* * * * tic|throne, who now|
w: care, be- comes a ti-|* * * * ny|Child who lies|
w: strength, to low- li- ness|_ _ _ _ He|clings, and takes|
w: lord, a won- d'rous switch|_ _ _ _ in-|deed. How could|
w: door to glor- ious par-|* * * * a-|dise; the Cher-|
[M:4/4] B2 (A2 F3) G |[M:6/4] (A2 F3 G A2 GF) G2 |[M:4/4] F6 z2 | z4 G2 E2 | %12
w: un- locks _ His|heav'n- * * * * * ly|home|and sends|
w: in want, _ in|sta- * * * * * ble-|bare,|a man-|
w: a ser- * vant's|liv- * * * * * er-|y,|Cre- a-|
w: He have _ been|friend- * * * * * li-|er,|that ti-|
w: ub stands _ to|guard _ _ _ _ _ no|more.|Un- to|
 !breath!D2 G2 E2 !breath!D2 | G2 E2 D2 (E2- | ED!>(!EF G2) E2!>)! | %15
w: us, and sends us,|and sends his on-|* * * * * ly|
w: ger, a man- ger,|a man- ger for|_ _ _ _ _ His|
w: tor, Cre- a- tor,|Cre- a- tor of|_ _ _ _ _ all|
w: ny, that ti- ny,|that ti- ny Je-|* * * * * sus,|
w: God, un- to God,|to God be high-|* * * * * est|
[M:6/4] !breath!A2"^piu"!f! F2 B2 (AG) G2 F2 |[M:2/4] !breath!G2 GG | !breath!A2 GG | %18
w: Son, and sends His _ on- ly|Son, on- ly|Son, on- ly|
w: bed, a man- ger _ for His|bed, for His|bed, for His|
w: things, Cre- a- tor _ of all|things, of all|things, of all|
w: Lord, that ti- ny _ Je- sus,|Lord, Je- sus,|Lord, Je- sus,|
w: praise, to God be _ high- est|praise, high- est|praise, high- est|
[M:6/4] !breath!A2 (G3 A- !breath!AGABcB- | BA G2) A2 B6 |] %20
w: Son, on- * * * * * * *|* * * ly Son.|
w: bed, for _ _ _ _ _ _ _|_ _ _ His bed.|
w: things, of _ _ _ _ _ _ _|_ _ _ all things.|
w: Lord, Je- * * * * * * *|* * * sus, Lord?|
w: praise, high- * * * * * * *|* * * est praise.|
V:3
 z4 | z4 | z4 |[M:4/4] z4!f!"^(c.f.)" G,4 | D2 D2 D2 D2 |[M:6/4] E2 (DC) !breath!B,2 B,2 C2 D2 | %6
w: |||1.  Praise|God, ye Christ- ians,|all as _ one, on His ma-|
w: |||2.  He|comes here from His|Fa- ther's _ care, be- comes a|
w: |||3.  He|cries a- loud with|all His _ strength, to low- li-|
w: |||4.  And|He as ser- vant,|I as _ lord, a won- d'rous|
w: |||5.  To-|day He has un-|locked the _ door to glor- ious|
 (E3 D EF G3 F) E2 |[M:3/4] D6 |[M:4/4] z8 |[M:6/4] z4 z2 D2 D2 D2 |[M:4/4] D2 E2 D2 (CB,) | A,8- | %12
w: jes- * * * * * tic|throne||who now un-|locks His heav'n- ly _|home|
w: ti- * * * * * ny|Child||who lies in|want, in sta- ble _|bare,|
w: ness _ _ _ _ _ He|clings,||and takes a|ser- vant's liv- er- *|y,|
w: switch _ _ _ _ _ in-|deed.||How could He|have been friend- li- *|er,|
w: par- * * * * * a-|dise;||the Cher- ub|stands to guard no _|more.|
 A,8- | A,4 z4 | z8 |[M:6/4]"^piu"!f! D4 B,2 G,2 D2 D2 |[M:2/4] G,4- | G,4- |[M:6/4] G,12- | %19
w: _|||and sends His on- ly|Son.|_||
w: _|||a man- ger for his|bed.|_||
w: _|||Cre- a- tor of all|things.|_||
w: _|||that ti- ny Je- sus,|Lord?|_||
w: _|||To God be high- est|praise.|_||
 G,12 |] %20
w: |
w: |
w: |
w: |
w: |

